src/com/lilithsthrone/res/perks/fitness_runner_2.svg

<?xml version="1.0" encoding="UTF-8" standalone="no"?>
<!-- Created with Inkscape (http://www.inkscape.org/) -->

<svg
   xmlns:dc="http://purl.org/dc/elements/1.1/"
   xmlns:cc="http://creativecommons.org/ns#"
   xmlns:rdf="http://www.w3.org/1999/02/22-rdf-syntax-ns#"
   xmlns:svg="http://www.w3.org/2000/svg"
   xmlns="http://www.w3.org/2000/svg"
   xmlns:sodipodi="http://sodipodi.sourceforge.net/DTD/sodipodi-0.dtd"
   xmlns:inkscape="http://www.inkscape.org/namespaces/inkscape"
   width="100%"
   height="100%"
   viewBox="0 0 64.000001 64.000001"
   id="svg4311"
   version="1.1"
   inkscape:version="0.91 r13725"
   sodipodi:docname="fitness_runner_2.svg">
  <defs
     id="defs4313">
    <inkscape:path-effect
       effect="powerstroke"
       id="path-effect4183"
       is_visible="true"
       offset_points="0.238227,0.51804536"
       sort_points="true"
       interpolator_type="Linear"
       interpolator_beta="0.2"
       start_linecap_type="zerowidth"
       linejoin_type="round"
       miter_limit="4"
       end_linecap_type="zerowidth"
       cusp_linecap_type="round" />
  </defs>
  <sodipodi:namedview
     id="base"
     pagecolor="#ffffff"
     bordercolor="#666666"
     borderopacity="1.0"
     inkscape:pageopacity="0.0"
     inkscape:pageshadow="2"
     inkscape:zoom="5.6"
     inkscape:cx="25.097922"
     inkscape:cy="35.079998"
     inkscape:document-units="px"
     inkscape:current-layer="layer5"
     showgrid="false"
     units="px"
     inkscape:window-width="2560"
     inkscape:window-height="1388"
     inkscape:window-x="-8"
     inkscape:window-y="-8"
     inkscape:window-maximized="1" />
  <metadata
     id="metadata4316">
    <rdf:RDF>
      <cc:Work
         rdf:about="">
        <dc:format>image/svg+xml</dc:format>
        <dc:type
           rdf:resource="http://purl.org/dc/dcmitype/StillImage" />
        <dc:title></dc:title>
      </cc:Work>
    </rdf:RDF>
  </metadata>
  <g
     inkscape:groupmode="layer"
     id="layer5"
     inkscape:label="Stage5"
     style="display:inline">
    <path
       sodipodi:nodetypes="ccccccc"
       inkscape:connector-curvature="0"
       id="path4161-3"
       d="m 13.36285,26.786987 20.32647,2.974015 1.887378,21.644527 6.671383,-6.252806 -2.168896,-21.497251 -20.103377,-2.966561 z"
       style="display:inline;fill:#ff8080;fill-opacity:0.42056077;fill-rule:evenodd;stroke:#000000;stroke-width:1px;stroke-linecap:butt;stroke-linejoin:miter;stroke-opacity:0.14018692" />
    <path
       sodipodi:nodetypes="ccccccc"
       inkscape:connector-curvature="0"
       id="path4161"
       d="m 23.145139,17.74452 20.32647,2.974014 1.887375,21.644527 6.671386,-6.252806 -2.168897,-21.49725 -20.103376,-2.966561 z"
       style="display:inline;fill:#ff8080;fill-opacity:0.5373832;fill-rule:evenodd;stroke:#000000;stroke-width:1px;stroke-linecap:butt;stroke-linejoin:miter;stroke-opacity:0.35514018" />
    <path
       style="display:inline;fill:#ff8080;fill-rule:evenodd;stroke:#000000;stroke-width:1px;stroke-linecap:butt;stroke-linejoin:miter;stroke-opacity:1"
       d="M 33.073523,8.3950557 53.399993,11.369069 55.28737,33.013596 61.958754,26.760789 59.789857,5.2635396 39.686482,2.2969788 Z"
       id="path4142-3"
       inkscape:connector-curvature="0"
       sodipodi:nodetypes="ccccccc" />
    <path
       sodipodi:nodetypes="ccccccc"
       inkscape:connector-curvature="0"
       id="path4161-3-5"
       d="M 3.4175539,35.92598 23.744024,38.899995 25.631401,60.544521 32.302785,54.291716 30.133888,32.794465 10.030511,29.827904 Z"
       style="display:inline;fill:#ff8080;fill-opacity:0.26635513;fill-rule:evenodd;stroke:#000000;stroke-width:1px;stroke-linecap:butt;stroke-linejoin:miter;stroke-opacity:0.07943925" />
  </g>
</svg>

<svg xmlns="http://www.w3.org/2000/svg" viewBox="0 0 64 64">
    <g fill="#ff8080" fill-rule="evenodd" stroke="#000">
        <path fill-opacity=".421" stroke-opacity=".14" d="M13.363 26.787l20.326 2.974 1.888 21.645 6.671-6.253-2.169-21.498-20.103-2.966z"/>
        <path fill-opacity=".537" stroke-opacity=".355" d="M23.145 17.745l20.327 2.974 1.887 21.644 6.671-6.253-2.169-21.497-20.103-2.967z"/>
        <path d="M33.074 8.395L53.4 11.37l1.887 21.645 6.672-6.253-2.17-21.497-20.103-2.967z"/>
        <path fill-opacity=".266" stroke-opacity=".079" d="M3.418 35.926L23.744 38.9l1.887 21.645 6.672-6.253-2.17-21.498-20.102-2.966z"/>
    </g>
</svg>
